res/skins/LateNight/buttons/btn_fxParameter_over.svg

<?xml version="1.0" encoding="UTF-8" standalone="no"?>
<!-- Created with Inkscape (http://www.inkscape.org/) -->

<svg
   xmlns:dc="http://purl.org/dc/elements/1.1/"
   xmlns:cc="http://creativecommons.org/ns#"
   xmlns:rdf="http://www.w3.org/1999/02/22-rdf-syntax-ns#"
   xmlns:svg="http://www.w3.org/2000/svg"
   xmlns="http://www.w3.org/2000/svg"
   xmlns:xlink="http://www.w3.org/1999/xlink"
   version="1.1"
   width="40"
   height="17"
   id="svg7007">
  <defs
     id="defs7009">
    <linearGradient
       id="linearGradient3801-6">
      <stop
         id="stop3803-7"
         style="stop-color:#242424;stop-opacity:1"
         offset="0" />
      <stop
         id="stop3805-5"
         style="stop-color:#101010;stop-opacity:1"
         offset="1" />
    </linearGradient>
    <linearGradient
       x1="13"
       y1="1027.3622"
       x2="13"
       y2="1049.3622"
       id="linearGradient7062"
       xlink:href="#linearGradient3801-6-9-9"
       gradientUnits="userSpaceOnUse"
       gradientTransform="matrix(1.5217391,0,0,0.52173874,2.2391304,-1585.6159)" />
    <linearGradient
       x1="15"
       y1="1049.3622"
       x2="15"
       y2="1027.3622"
       id="linearGradient3878"
       xlink:href="#linearGradient3801-6-5"
       gradientUnits="userSpaceOnUse"
       gradientTransform="translate(0,-1026.3622)" />
    <linearGradient
       id="linearGradient3801-6-5">
      <stop
         id="stop3803-7-6"
         style="stop-color:#222222;stop-opacity:1"
         offset="0" />
      <stop
         id="stop3805-5-2"
         style="stop-color:#131516;stop-opacity:1"
         offset="1" />
    </linearGradient>
    <linearGradient
       x1="11"
       y1="1027.3622"
       x2="11"
       y2="1049.3622"
       id="linearGradient4650"
       xlink:href="#linearGradient3801-6-9-9"
       gradientUnits="userSpaceOnUse"
       gradientTransform="translate(0,-1026.3622)" />
    <linearGradient
       id="linearGradient3801-6-9-9">
      <stop
         id="stop3803-7-1-95"
         style="stop-color:#ce0e0e;stop-opacity:1"
         offset="0" />
      <stop
         id="stop4329-2"
         style="stop-color:#dd0000;stop-opacity:1"
         offset="0.28" />
      <stop
         id="stop3805-5-28-1"
         style="stop-color:#8d0000;stop-opacity:1"
         offset="1" />
    </linearGradient>
    <linearGradient
       x1="11"
       y1="1027.3622"
       x2="11"
       y2="1049.3622"
       id="linearGradient7664"
       xlink:href="#linearGradient3801-6-9-9"
       gradientUnits="userSpaceOnUse"
       gradientTransform="translate(50.5,-5.0000348)" />
    <linearGradient
       x1="13"
       y1="1027.3622"
       x2="13"
       y2="1049.3622"
       id="linearGradient3460"
       xlink:href="#linearGradient3801-6-9-9"
       gradientUnits="userSpaceOnUse"
       gradientTransform="matrix(1.5217391,0,0,0.52173874,2.2391304,-1585.6159)" />
    <linearGradient
       x1="11"
       y1="1027.3622"
       x2="11"
       y2="1049.3622"
       id="linearGradient3462"
       xlink:href="#linearGradient3801-6-9-9"
       gradientUnits="userSpaceOnUse"
       gradientTransform="translate(50.5,-5.0000348)" />
    <linearGradient
       x1="11"
       y1="1027.3622"
       x2="11"
       y2="1049.3622"
       id="linearGradient3466"
       xlink:href="#linearGradient3801-6-9-9"
       gradientUnits="userSpaceOnUse"
       gradientTransform="translate(50,-1040.3622)" />
    <linearGradient
       x1="13"
       y1="1027.3622"
       x2="13"
       y2="1049.3622"
       id="linearGradient3470"
       xlink:href="#linearGradient3801-6-9-9"
       gradientUnits="userSpaceOnUse"
       gradientTransform="matrix(1.5217391,0,0,0.52173874,1.7391304,-550.2537)" />
  </defs>
  <metadata
     id="metadata7012">
    <rdf:RDF>
      <cc:Work
         rdf:about="">
        <dc:format>image/svg+xml</dc:format>
        <dc:type
           rdf:resource="http://purl.org/dc/dcmitype/StillImage" />
        <dc:title></dc:title>
      </cc:Work>
    </rdf:RDF>
  </metadata>
  <rect
     width="35"
     height="12"
     rx="2"
     ry="2"
     x="2.5"
     y="-14.499983"
     transform="scale(1,-1)"
     id="rect3029"
     style="color:#000000;fill:url(#linearGradient3470);fill-opacity:1;fill-rule:nonzero;stroke:none;stroke-width:1;marker:none;visibility:visible;display:inline;overflow:visible;enable-background:accumulate" />
  <path
     d="M 4,2 C 2.9006486,2 2,2.9006 2,4 l 0,9.0001 c 0,1.0994 0.9006486,2 2,2 l 32,0 c 1.099351,0 2,-0.9006 2,-2 L 38,4 C 38,2.9006 37.099351,2 36,2 z M 4.3,3 35.7,3 C 36.262649,3 37,3.7374 37,4.3 l 0,8.4001 c 0,0.5626 -0.737351,1.3 -1.3,1.3 l -31.4,0 c -0.5626486,0 -1.3,-0.7374 -1.3,-1.3 L 3,4.3 C 3,3.7374 3.7373514,3 4.3,3 z"
     id="rect3029-96-0"
     style="font-size:medium;font-style:normal;font-variant:normal;font-weight:normal;font-stretch:normal;text-indent:0;text-align:start;text-decoration:none;line-height:normal;letter-spacing:normal;word-spacing:normal;text-transform:none;direction:ltr;block-progression:tb;writing-mode:lr-tb;text-anchor:start;baseline-shift:baseline;color:#000000;fill:#979797;fill-opacity:1;fill-rule:nonzero;stroke:none;stroke-width:1;marker:none;visibility:visible;display:inline;overflow:visible;enable-background:accumulate;font-family:Sans;-inkscape-font-specification:Sans" />
</svg>

<svg id="svg7007" width="40" height="17" version="1.1" xmlns="http://www.w3.org/2000/svg"><defs id="defs7009"><linearGradient id="linearGradient3470" x1="13" x2="13" y1="1027.4" y2="1049.4" gradientTransform="matrix(1.5217 0 0 .52174 1.7391 -550.25)" gradientUnits="userSpaceOnUse"><stop id="stop3803-7-1-95" stop-color="#ce0e0e" offset="0"/><stop id="stop4329-2" stop-color="#d00" offset=".28"/><stop id="stop3805-5-28-1" stop-color="#8d0000" offset="1"/></linearGradient></defs><rect id="rect3029" transform="scale(1,-1)" x="2.5" y="-14.5" width="35" height="12" rx="2" ry="2" color="#000000" fill="url(#linearGradient3470)"/><path id="rect3029-96-0" d="m4 2c-1.0994 0-2 0.9006-2 2v9.0001c0 1.0994 0.90065 2 2 2h32c1.0994 0 2-0.9006 2-2v-9.0001c0-1.0994-0.90065-2-2-2zm0.3 1h31.4c0.56265 0 1.3 0.7374 1.3 1.3v8.4001c0 0.5626-0.73735 1.3-1.3 1.3h-31.4c-0.56265 0-1.3-0.7374-1.3-1.3v-8.4001c0-0.5626 0.73735-1.3 1.3-1.3z" color="#000000" fill="#979797" style="block-progression:tb;text-indent:0;text-transform:none"/></svg>
